X:3041
T:Linstead market
C:anon.
O:Jamaica?
R:Calypso
F:http://abc.musicaviva.com/tunes/jamaica/linstead-market.abc
M:C
L:1/8
Q:1/4=127
K:D
"D"AA AF2 A dc|"G"B2B2 "D"A2A2|"A7"GF2 E2 FG2|"D"A4 z4|
w:Car-ry me ac-kee go a Lin-stead mark-et, not a quat-ty to sell,
"D"AA AF2 A dc|"G"B2B2 "D"A2A2|"A7"GF2 E2 FE2|"D"D4 A4|
w:Car-ry me ac-kee go a Lin-stead mark-et, not a quat-ty to sell. Oh,
"D"F6 GF|"A7"E2FE "D"D4|"A7"CD2 E2 FG2|"D"A6 z2|
w:Lawd! Not a mite, not a bite, wat a Sat-i-day night!
"D"F6 GF|"A7"E2FE "D"D4|"A7"CD2 E2 FE2|"D"D4 z4|]
w:Lawd! Not a mite, not a bite, wat a Sat-i-day night!
W:
W:Carry me ackee go a Linstead market,
W:not a quatty to sell,
W:Carry me ackee go a Linstead market,
W:not a quatty to sell.
W:Oh, Lawd! Not a mite, not a bite,
W:wat a Satiday night!
W:Lawd! Not a mite, not a bite,
W:wat a Satiday night!
W:
W:
W:  From Musica Viva - http://www.musicaviva.com
W:  the Internet center for free sheet music downloads.

